storage/app/icons/phosphoricons/duotone/angle-duotone.svg

<svg xmlns="http://www.w3.org/2000/svg" fill="currentColor" viewBox="0 0 256 256"><path d="M200 168v32H72V72h32a96 96 0 0 1 96 96" opacity=".2"/><path d="M96 72a8 8 0 0 1 8-8 104.11 104.11 0 0 1 104 104 8 8 0 0 1-16 0 88.1 88.1 0 0 0-88-88 8 8 0 0 1-8-8m144 120H80V32a8 8 0 0 0-16 0v32H32a8 8 0 0 0 0 16h32v120a8 8 0 0 0 8 8h168a8 8 0 0 0 0-16"/></svg>

<svg xmlns="http://www.w3.org/2000/svg" viewBox="0 0 256 256" fill="currentColor"><path d="M200,168v32H72V72h32A96,96,0,0,1,200,168Z" opacity="0.2"/><path d="M96,72a8,8,0,0,1,8-8A104.11,104.11,0,0,1,208,168a8,8,0,0,1-16,0,88.1,88.1,0,0,0-88-88A8,8,0,0,1,96,72ZM240,192H80V32a8,8,0,0,0-16,0V64H32a8,8,0,0,0,0,16H64V200a8,8,0,0,0,8,8H240a8,8,0,0,0,0-16Z"/></svg>
